X: 41555
T: Union
R: hornpipe
M: 4/4
K: Gmajor
d>c|B>G (3Bcd g2 f>a|g>dB>G D2 A>B|c>Bc>d e>fg>f|(3efe (3d^cB A2 d>c|
B>G (3Bcd g2 f>a|g>b (3agf g2 d>c|B>df>d e>cA>F|G2 (3FGA G2:|
|:B>c|d>gg>f g2 b>g|d>gg>g d>gg>g|e>aa>g a2 a>g|e>a a2 e>a a2|
d>gg>f g2 b>g|d>g g2 e>gd>g|(3bag (3agf g>ed>c|(3Bcd A>F G2:|

